X: 1
T: McNamara's
M: 4/4
L: 1/8
R: barndance
K: Dmaj
|:(3ABc|d2dc dfaf|e2B2 B2ed|cBcb afge|defd A2FA|
d2dc dfaf|e2dc B2Bd|cBcb afge|d2dc d2:|
|:ag|f2af e2fe|defd A2FA|B2dB ABde|fdaf e2ag|
faaf egfe|defd A2ga|bagf gaAc|eddc d2:|
